templates/main/source/images/m.svg

<?xml version="1.0" encoding="utf-8"?>
<svg width="50px" height="28px" viewBox="0 0 50 28" version="1.1" xmlns:xlink="http://www.w3.org/1999/xlink" xmlns="http://www.w3.org/2000/svg">
  <desc>Created with Lunacy</desc>
  <path d="M33.8539 0L50 0L50 4.52201L46.763 4.52201L46.763 22.9718L50 22.9718L50 27.4895L29.0145 27.4895L29.0145 22.9718L32.2536 22.9718L32.2536 11.0143L20.3304 27.4895L8.36197 11.0143L8.36197 22.9718L11.6011 22.9718L11.6011 27.4895L0 27.4895L0 22.9718L3.1983 22.9718L3.1983 4.52201L0 4.52201L0 0L18.3199 0L26.1062 10.7258L33.8539 0Z" id="Path" fill="#8C0014" stroke="none" />
</svg>

<svg width="50" height="28" viewBox="0 0 50 28" xmlns:xlink="http://www.w3.org/1999/xlink" xmlns="http://www.w3.org/2000/svg"><path d="M33.854 0H50v4.522h-3.237v18.45H50v4.517H29.015v-4.517h3.239V11.014L20.33 27.49 8.362 11.014v11.958h3.24v4.517H0v-4.517h3.198V4.522H0V0h18.32l7.786 10.726L33.854 0z" id="Path" fill="#8C0014" stroke="none"/></svg>
